!!!OTL: ES WOLLT EIN MAEDCHEN EIN SCHNEIDER
!!!ARE: Europa, Mitteleuropa, Deutschland, Weser - Gegend, Hoepla
!!!SCT: E1800
!!!YEM: Copyright 1995, estate of Helmut Schaffrath.
**kern
*ICvox
*Ivox
*M2/4
*k[f#]
*G:
{8d
=1
4g
12b
12a
12g
=2
4a}
{8dd
8cc
=3
8b
8a
8g
8b
=4
4.a}
{16g
16a
=5
8b
8b
8b
8b
=6
8dd
8a
8a}
{8a
=7
8dd
8a
8a
16g
16f#
=8
4b
16a
16g
16f#
16e
=9
4.d}
==
!!!AGN: Ehestands - Lied
!!!ONB: ESAC (Essen Associative Code) Database: ERK3
!!!AMT: simple duple
!!!AIN: vox
!!!EED: Helmut Schaffrath
!!!EEV: 1.0
*-
